local/share/icons/dracula-icons-main/scalable/apps/multimc.svg

<?xml version="1.0" encoding="UTF-8"?>
<svg xmlns="http://www.w3.org/2000/svg" xmlns:xlink="http://www.w3.org/1999/xlink" width="64" height="64" viewBox="0 0 64 64">
<defs>
<filter id="filter-remove-color" x="0%" y="0%" width="100%" height="100%">
<feColorMatrix color-interpolation-filters="sRGB" values="0 0 0 0 1 0 0 0 0 1 0 0 0 0 1 0 0 0 1 0" />
</filter>
<mask id="mask-0">
<g filter="url(#filter-remove-color)">
<rect x="-6.4" y="-6.4" width="76.8" height="76.8" fill="rgb(0%, 0%, 0%)" fill-opacity="0.1"/>
</g>
</mask>
<clipPath id="clip-0">
<rect x="0" y="0" width="17" height="17"/>
</clipPath>
<g id="source-13925" clip-path="url(#clip-0)">
<path fill-rule="nonzero" fill="rgb(100%, 100%, 100%)" fill-opacity="1" d="M 8.464844 2.644531 C 11.679688 2.644531 14.285156 5.25 14.285156 8.464844 C 14.285156 11.679688 11.679688 14.285156 8.464844 14.285156 C 5.25 14.285156 2.644531 11.679688 2.644531 8.464844 C 2.644531 5.25 5.25 2.644531 8.464844 2.644531 Z M 8.464844 2.644531 "/>
</g>
</defs>
<path fill-rule="nonzero" fill="rgb(49.803922%, 34.509804%, 23.529412%)" fill-opacity="1" d="M 8.464844 1.324219 C 12.410156 1.324219 15.609375 4.519531 15.609375 8.464844 C 15.609375 12.410156 12.410156 15.609375 8.464844 15.609375 C 4.519531 15.609375 1.324219 12.410156 1.324219 8.464844 C 1.324219 4.519531 4.519531 1.324219 8.464844 1.324219 Z M 8.464844 1.324219 "/>
<g mask="url(#mask-0)">
<use xlink:href="#source-13925"/>
</g>
<path fill-rule="nonzero" fill="rgb(49.803922%, 70.980392%, 31.764706%)" fill-opacity="1" d="M 8.464844 1.324219 C 6.503906 1.324219 4.730469 2.109375 3.441406 3.382812 L 3.441406 4.855469 L 4.699219 4.855469 L 4.699219 3.015625 L 7.210938 3.015625 L 7.210938 3.597656 L 9.722656 3.597656 L 9.722656 4.855469 L 10.980469 4.855469 L 10.980469 3.015625 L 12.238281 3.015625 L 12.238281 3.597656 L 13.492188 3.597656 L 13.492188 3.382812 C 12.203125 2.109375 10.429688 1.324219 8.464844 1.324219 Z M 8.464844 1.324219 "/>
<path fill-rule="nonzero" fill="rgb(70.196078%, 91.764706%, 8.235294%)" fill-opacity="1" d="M 5.6875 6.085938 C 5.003906 6.085938 4.332031 6.308594 3.808594 6.714844 C 3.285156 7.121094 2.910156 7.738281 2.910156 8.464844 C 2.910156 9.195312 3.285156 9.8125 3.808594 10.21875 C 4.332031 10.625 5.003906 10.847656 5.6875 10.847656 C 6.648438 10.847656 7.417969 10.273438 7.953125 9.738281 C 8.273438 9.417969 8.324219 9.300781 8.464844 9.097656 C 8.609375 9.300781 8.660156 9.417969 8.980469 9.738281 C 9.511719 10.273438 10.285156 10.847656 11.246094 10.847656 C 11.929688 10.847656 12.601562 10.625 13.125 10.21875 C 13.648438 9.8125 14.023438 9.195312 14.023438 8.464844 C 14.023438 7.738281 13.648438 7.121094 13.125 6.714844 C 12.601562 6.308594 11.929688 6.085938 11.246094 6.085938 C 10.285156 6.085938 9.511719 6.660156 8.980469 7.195312 C 8.660156 7.515625 8.609375 7.632812 8.464844 7.835938 C 8.324219 7.632812 8.273438 7.515625 7.953125 7.195312 C 7.417969 6.660156 6.648438 6.085938 5.6875 6.085938 Z M 5.6875 6.878906 C 6.316406 6.878906 6.933594 7.296875 7.390625 7.753906 C 7.75 8.113281 7.871094 8.324219 7.960938 8.464844 C 7.871094 8.605469 7.75 8.820312 7.390625 9.179688 C 6.933594 9.636719 6.316406 10.054688 5.6875 10.054688 C 5.179688 10.054688 4.664062 9.878906 4.292969 9.59375 C 3.925781 9.304688 3.703125 8.929688 3.703125 8.464844 C 3.703125 8.003906 3.925781 7.628906 4.292969 7.339844 C 4.664062 7.054688 5.179688 6.878906 5.6875 6.878906 Z M 11.246094 6.878906 C 11.75 6.878906 12.269531 7.054688 12.636719 7.339844 C 13.007812 7.628906 13.230469 8.003906 13.230469 8.464844 C 13.230469 8.929688 13.007812 9.304688 12.636719 9.59375 C 12.269531 9.878906 11.75 10.054688 11.246094 10.054688 C 10.617188 10.054688 10 9.636719 9.539062 9.179688 C 9.183594 8.820312 9.0625 8.605469 8.96875 8.464844 C 9.0625 8.324219 9.183594 8.113281 9.539062 7.753906 C 10 7.296875 10.617188 6.878906 11.246094 6.878906 Z M 11.246094 6.878906 "/>
</svg>

<?xml version="1.0" encoding="UTF-8"?>
<svg width="64" height="64" version="1.1" viewBox="0 0 16.933 16.933" xmlns="http://www.w3.org/2000/svg" xmlns:cc="http://creativecommons.org/ns#" xmlns:dc="http://purl.org/dc/elements/1.1/" xmlns:rdf="http://www.w3.org/1999/02/22-rdf-syntax-ns#">
 <metadata>
  <rdf:RDF>
   <cc:Work rdf:about="">
    <dc:format>image/svg+xml</dc:format>
    <dc:type rdf:resource="http://purl.org/dc/dcmitype/StillImage"/>
    <dc:title/>
   </cc:Work>
  </rdf:RDF>
 </metadata>
 <defs>
  <clipPath id="c">
   <rect x="1.5875" y="1.5875" width="13.758" height="13.758" ry=".79367" fill="#71c947"/>
  </clipPath>
 </defs>
 <rect x="1.3229" y="1.3229" width="14.287" height="14.287" rx="7.1436" ry="7.1436" fill="#7f583c" stroke-width="1.0385"/>
 <rect x="2.6458" y="2.6458" width="11.641" height="11.641" rx="5.8207" ry="5.8207" fill="#fff" opacity=".1" stroke-width="1.0476"/>
 <path transform="scale(.26458)" d="m32 5c-7.4246 0-14.128 2.9694-19 7.7871v3.3672h0.003906v2.1992l4.75-0.003907v-4.7461-2.1992h4.7461 4.75 0.001953l-0.003906 2.1953 9.498-0.001953 0.001953 4.7539 4.7539-0.003906 0.001953-6.9434h4.7461 0.001953l-0.001953 2.1953h4.75v-0.8125c-4.8717-4.8177-11.575-7.7871-19-7.7871z" fill="#7fb551" stroke-width=".73077"/>
 <rect x="1.5875" y="1.5875" width="13.758" height="13.758" clip-path="url(#c)" fill="none"/>
 <rect x="1.5875" y="1.5875" width="13.758" height="13.758" fill="none"/>
 <path d="m5.6884 6.0853c-0.68348 0-1.3569 0.22217-1.8805 0.62939-0.52359 0.40723-0.89759 1.0242-0.89759 1.7518 0 0.72762 0.37402 1.3445 0.89759 1.7518 0.52359 0.40723 1.197 0.62939 1.8805 0.62939 0.95911 0 1.7315-0.57494 2.2649-1.1084 0.32074-0.32074 0.3699-0.43731 0.51315-0.64257 0.14324 0.20527 0.19239 0.32184 0.51315 0.64257 0.53351 0.53351 1.3059 1.1084 2.2649 1.1084 0.68349 0 1.3569-0.22217 1.8805-0.62939 0.52359-0.40722 0.89759-1.0242 0.89759-1.7518 0-0.72762-0.37402-1.3445-0.89759-1.7518-0.52359-0.40723-1.197-0.62939-1.8805-0.62939-0.95911 0-1.7315 0.57494-2.2649 1.1084-0.32074 0.32074-0.3699 0.43731-0.51315 0.64257-0.14324-0.20527-0.19239-0.32184-0.51315-0.64257-0.53351-0.53351-1.3059-1.1084-2.2649-1.1084zm0 0.79373c0.62836 0 1.2451 0.41723 1.7038 0.87589 0.35651 0.3565 0.4787 0.57089 0.5705 0.71158-0.0918 0.1407-0.21399 0.35507-0.5705 0.71158-0.45866 0.45866-1.0754 0.87589-1.7038 0.87589-0.50712 0-1.0243-0.1747-1.3937-0.46199-0.36936-0.28728-0.59066-0.66249-0.59066-1.1255 0-0.46298 0.22129-0.83822 0.59066-1.1255 0.36936-0.28728 0.88656-0.46199 1.3937-0.46199zm5.5561 0c0.50712 0 1.0243 0.1747 1.3937 0.46199 0.36936 0.28728 0.59066 0.66249 0.59066 1.1255 0 0.46298-0.22129 0.83823-0.59066 1.1255-0.36936 0.28728-0.88656 0.46199-1.3937 0.46199-0.62836 0-1.2451-0.41723-1.7038-0.87589-0.35651-0.35651-0.4787-0.5709-0.5705-0.71158 0.0918-0.1407 0.21399-0.35506 0.5705-0.71158 0.45866-0.45866 1.0754-0.87589 1.7038-0.87589z" fill="#b3ea15" stroke-width=".39687"/>
</svg>
